svg/clockface/clockfacefatsolid/clock_08_40.svg

<?xml version="1.0" encoding="UTF-8" standalone="no"?>
<svg
   height="1000"
   width="1000"
   version="1.1"
   id="h00m00"
   viewBox="0 0 1000 1000"
   sodipodi:docname="clock_08_40.svg"
   xmlns:inkscape="http://www.inkscape.org/namespaces/inkscape"
   xmlns:sodipodi="http://sodipodi.sourceforge.net/DTD/sodipodi-0.dtd"
   xmlns="http://www.w3.org/2000/svg"
   xmlns:svg="http://www.w3.org/2000/svg">
  <defs
     id="defs10" />
  <sodipodi:namedview
     id="namedview8"
     pagecolor="#ffffff"
     bordercolor="#000000"
     borderopacity="0.25"
     inkscape:showpageshadow="2"
     inkscape:pageopacity="0.0"
     inkscape:pagecheckerboard="0"
     inkscape:deskcolor="#d1d1d1" />
  <path
     id="path14"
     style="color:#000000;fill:#000000;stroke-width:60;-inkscape-stroke:none"
     d="M 500 130 C 296.01059 130 130 296.01059 130 500 C 130 703.98941 296.01059 870 500 870 C 703.98941 870 870 703.98941 870 500 C 870 296.01059 703.98941 130 500 130 z M 496.91992 460.37305 A 40.004 40.004 0 0 1 520 534.64062 L 398.75586 604.64062 L 364.11523 624.64062 L 338.13477 639.64062 L 303.49414 659.64062 L 263.49414 590.35938 L 298.13477 570.35938 L 324.11523 555.35938 L 358.75586 535.35938 L 480 465.35938 A 40.004 40.004 0 0 1 496.91992 460.37305 z " />
</svg>

<svg xmlns="http://www.w3.org/2000/svg" width="1000" height="1000"><path d="M500 130c-203.99 0-370 166.01-370 370s166.01 370 370 370 370-166.01 370-370-166.01-370-370-370zm-3.08 330.373A40.004 40.004 0 0 1 520 534.641l-121.244 70-34.64 20-25.981 15-34.64 20-40-69.282 34.64-20 25.98-15 34.64-20 121.245-70a40.004 40.004 0 0 1 16.92-4.986z" style="-inkscape-stroke:none" stroke-width="60"/></svg>
